public/img/imgComponents/StartVoting/creative.svg

<?xml version="1.0" encoding="iso-8859-1"?>
<!-- Generator: Adobe Illustrator 19.0.0, SVG Export Plug-In . SVG Version: 6.00 Build 0)  -->
<svg version="1.1" id="Capa_1" xmlns="http://www.w3.org/2000/svg" xmlns:xlink="http://www.w3.org/1999/xlink" x="0px" y="0px"
	 viewBox="0 0 431.76 431.76" style="enable-background:new 0 0 431.76 431.76;" xml:space="preserve">
<g>
	<g>
		<path d="M215.88,85.12C153.556,85.164,103.044,135.676,103,198c0.557,40.682,20.351,78.696,53.36,102.48V382
			c0.027,0.932,0.216,1.853,0.56,2.72v0.64c0.138,0.33,0.299,0.651,0.48,0.96l28.16,41.92c1.49,2.205,3.979,3.524,6.64,3.52h46.56
			c2.661,0.004,5.15-1.315,6.64-3.52l28.16-41.92c0.181-0.309,0.342-0.63,0.48-0.96v-0.64c0.344-0.867,0.533-1.788,0.56-2.72v-81.52
			c33.01-23.784,52.803-61.798,53.36-102.48C327.918,135.987,277.891,85.603,215.88,85.12z M234.92,416h-38.08l-17.44-25.92h72.88
			L234.92,416z M172.44,374.08v-21.2h86.88l0.08,21.2H172.44z M263,289.52l0,0.24c-2.259,1.487-3.613,4.015-3.6,6.72v40.64h-86.96
			V296c0.013-2.705-1.341-5.233-3.6-6.72c-30.628-20.467-49.233-54.687-49.76-91.52c1.537-53.483,46.14-95.594,99.623-94.057
			c51.323,1.475,92.582,42.734,94.057,94.057C312.312,234.679,293.697,269.005,263,289.52z"/>
	</g>
</g>
<g>
	<g>
		<path d="M219.08,121.36c-4.418,0-8,3.582-8,8s3.582,8,8,8c33.251,0.044,60.196,26.989,60.24,60.24c0,4.418,3.582,8,8,8
			s8-3.582,8-8C295.276,155.512,261.168,121.404,219.08,121.36z"/>
	</g>
</g>
<g>
	<g>
		<path d="M81.48,189.6h-57.6c-4.418,0-8,3.582-8,8s3.582,8,8,8h57.6c4.418,0,8-3.582,8-8c0,0,0,0,0,0
			C89.48,193.182,85.898,189.6,81.48,189.6z"/>
	</g>
</g>
<g>
	<g>
		<path d="M407.88,189.6h-57.6c-4.418,0-8,3.582-8,8s3.582,8,8,8h57.6c4.418,0,8-3.582,8-8S412.298,189.6,407.88,189.6z"/>
	</g>
</g>
<g>
	<g>
		<path d="M127.313,287.12c-2.874-3.356-7.924-3.747-11.28-0.873c-0.313,0.268-0.605,0.56-0.873,0.873v-0.16L74.28,328
			c-3.356,2.874-3.747,7.924-0.873,11.28c2.874,3.356,7.924,3.747,11.28,0.873c0.313-0.268,0.605-0.56,0.873-0.873l40.88-40.88
			C129.796,295.526,130.187,290.476,127.313,287.12z"/>
	</g>
</g>
<g>
	<g>
		<path d="M356.607,56c-2.995-2.565-7.412-2.565-10.407,0l-40.88,40.88c-3.137,3.111-3.158,8.177-0.047,11.314
			c1.513,1.526,3.577,2.379,5.727,2.366l-0.08-0.08c2.126,0.012,4.17-0.823,5.68-2.32l40.88-40.88
			C360.354,63.924,359.963,58.874,356.607,56z"/>
	</g>
</g>
<g>
	<g>
		<path d="M359.067,329.609c-0.45-0.609-0.984-1.151-1.587-1.609l-40.88-41.04c-2.874-3.356-7.924-3.747-11.28-0.873
			c-3.356,2.874-3.747,7.924-0.873,11.28c0.268,0.313,0.56,0.605,0.873,0.873l40.88,40.88c2.626,3.553,7.636,4.304,11.189,1.678
			S361.693,333.162,359.067,329.609z"/>
	</g>
</g>
<g>
	<g>
		<path d="M126.44,96.88L85.56,56c-3.356-2.874-8.406-2.483-11.28,0.873c-2.565,2.995-2.565,7.412,0,10.407l40.88,40.88
			c3.356,2.874,8.406,2.483,11.28-0.873C129.005,104.292,129.005,99.875,126.44,96.88z"/>
	</g>
</g>
<g>
	<g>
		<path d="M215.88,0c-4.418,0-8,3.582-8,8v57.84c-0.133,4.416,3.34,8.104,7.756,8.236c0.081,0.002,0.162,0.004,0.244,0.004
			c4.418,0,8-3.582,8-8V8C223.88,3.582,220.298,0,215.88,0z"/>
	</g>
</g>
<g>
</g>
<g>
</g>
<g>
</g>
<g>
</g>
<g>
</g>
<g>
</g>
<g>
</g>
<g>
</g>
<g>
</g>
<g>
</g>
<g>
</g>
<g>
</g>
<g>
</g>
<g>
</g>
<g>
</g>
</svg>

<svg width="432" height="432" viewBox="0 0 432 432" fill="none" xmlns="http://www.w3.org/2000/svg">
<g clip-path="url(#clip0)">
<path d="M215.88 85.12C153.556 85.164 103.044 135.676 103 198C103.557 238.682 123.351 276.696 156.36 300.48V382C156.387 382.932 156.576 383.853 156.92 384.72V385.36C157.058 385.69 157.219 386.011 157.4 386.32L185.56 428.24C187.05 430.445 189.539 431.764 192.2 431.76H238.76C241.421 431.764 243.91 430.445 245.4 428.24L273.56 386.32C273.741 386.011 273.902 385.69 274.04 385.36V384.72C274.384 383.853 274.573 382.932 274.6 382V300.48C307.61 276.696 327.403 238.682 327.96 198C327.918 135.987 277.891 85.603 215.88 85.12ZM234.92 416H196.84L179.4 390.08H252.28L234.92 416ZM172.44 374.08V352.88H259.32L259.4 374.08H172.44ZM263 289.52V289.76C260.741 291.247 259.387 293.775 259.4 296.48V337.12H172.44V296C172.453 293.295 171.099 290.767 168.84 289.28C138.212 268.813 119.607 234.593 119.08 197.76C120.617 144.277 165.22 102.166 218.703 103.703C270.026 105.178 311.285 146.437 312.76 197.76C312.312 234.679 293.697 269.005 263 289.52Z" fill="#FFB900"/>
<path d="M219.08 121.36C214.662 121.36 211.08 124.942 211.08 129.36C211.08 133.778 214.662 137.36 219.08 137.36C252.331 137.404 279.276 164.349 279.32 197.6C279.32 202.018 282.902 205.6 287.32 205.6C291.738 205.6 295.32 202.018 295.32 197.6C295.276 155.512 261.168 121.404 219.08 121.36Z" fill="#FFB900"/>
<path d="M81.4799 189.6H23.8799C19.4619 189.6 15.8799 193.182 15.8799 197.6C15.8799 202.018 19.4619 205.6 23.8799 205.6H81.4799C85.8979 205.6 89.4799 202.018 89.4799 197.6C89.4799 193.182 85.8979 189.6 81.4799 189.6Z" fill="#FFB900"/>
<path d="M407.88 189.6H350.28C345.862 189.6 342.28 193.182 342.28 197.6C342.28 202.018 345.862 205.6 350.28 205.6H407.88C412.298 205.6 415.88 202.018 415.88 197.6C415.88 193.182 412.298 189.6 407.88 189.6Z" fill="#FFB900"/>
<path d="M127.313 287.12C124.439 283.764 119.389 283.373 116.033 286.247C115.72 286.515 115.428 286.807 115.16 287.12V286.96L74.2799 328C70.9239 330.874 70.5329 335.924 73.4069 339.28C76.2809 342.636 81.3309 343.027 84.6869 340.153C84.9999 339.885 85.2919 339.593 85.5599 339.28L126.44 298.4C129.796 295.526 130.187 290.476 127.313 287.12Z" fill="#FFB900"/>
<path d="M356.607 56C353.612 53.435 349.195 53.435 346.2 56L305.32 96.88C302.183 99.991 302.162 105.057 305.273 108.194C306.786 109.72 308.85 110.573 311 110.56L310.92 110.48C313.046 110.492 315.09 109.657 316.6 108.16L357.48 67.28C360.354 63.924 359.963 58.874 356.607 56Z" fill="#FFB900"/>
<path d="M359.067 329.609C358.617 329 358.083 328.458 357.48 328L316.6 286.96C313.726 283.604 308.676 283.213 305.32 286.087C301.964 288.961 301.573 294.011 304.447 297.367C304.715 297.68 305.007 297.972 305.32 298.24L346.2 339.12C348.826 342.673 353.836 343.424 357.389 340.798C360.942 338.172 361.693 333.162 359.067 329.609Z" fill="#FFB900"/>
<path d="M126.44 96.88L85.5599 56C82.2039 53.126 77.154 53.517 74.28 56.873C71.715 59.868 71.715 64.285 74.28 67.28L115.16 108.16C118.516 111.034 123.566 110.643 126.44 107.287C129.005 104.292 129.005 99.875 126.44 96.88Z" fill="#FFB900"/>
<path d="M215.88 0C211.462 0 207.88 3.582 207.88 8V65.84C207.747 70.256 211.22 73.944 215.636 74.076C215.717 74.078 215.798 74.08 215.88 74.08C220.298 74.08 223.88 70.498 223.88 66.08V8C223.88 3.582 220.298 0 215.88 0Z" fill="#FFB900"/>
</g>
<defs>
<clipPath id="clip0">
<rect width="431.76" height="431.76" fill="white"/>
</clipPath>
</defs>
</svg>
